X:236
T: WER IST EIN MANN
N: F0411
O: Europa, Mitteleuropa, Deutschland
R: Vaterlands -, Heimat - Lied, nationalistisch
M: 4/4
L: 1/16
K: D
A2B2c2 | d6F2A6C2 | D8z2
D2E2F2 | G8A8 | F8z4
G2F2 | E3FG3FD4d2c2 | B3cd3BA4
d4 | e4e4d2c2B2c2 | d12
d2B2 | A4G2F2G4E4 | D8z2

@@@ Tune index: 5667
